Sources/FrostedUI/Resources/Icons.xcassets/sticker16.imageset/sticker-16.svg

<svg width="16" height="16" viewBox="0 0 16 16" fill="none" xmlns="http://www.w3.org/2000/svg" data-fui-icon="true">
  <g clip-path="url(#clip0_6194_100)">
    <path
      d="M10.0187 0.078078C12.3312 -0.333546 14.585 1.13723 15.1193 3.45174L15.4521 4.89331C16.5554 9.6719 13.576 14.4399 8.79738 15.5431L7.3558 15.876L7.13183 15.9216C4.89384 16.3204 2.71065 14.9566 2.08764 12.7705L2.03052 12.5492L0.698831 6.78097C0.164426 4.46621 1.54592 2.15603 3.80523 1.51258L4.02657 1.45547L9.79477 0.123774L10.0187 0.078078ZM4.35961 2.89799C2.76674 3.26573 1.77361 4.85507 2.14135 6.44793L3.47305 12.2161C3.84094 13.8088 5.43024 14.8021 7.02299 14.4344L8.46456 14.1016C8.79051 14.0263 9.10564 13.9285 9.41045 13.814L8.76108 11.0013C8.33148 9.13965 9.49251 7.28174 11.354 6.8517L14.1668 6.20233C14.1361 5.87816 14.0858 5.55207 14.0106 5.22612L13.6777 3.78455C13.31 2.1918 11.7206 1.19878 10.1278 1.5663L4.35961 2.89799ZM11.6871 8.29422C10.622 8.54039 9.95788 9.60305 10.2036 10.6683L10.7728 13.1337C12.6538 11.9366 13.9021 9.94023 14.1535 7.72482L11.6871 8.29422Z"
      fill="currentColor"
    />
  </g>
  <defs>
    <clipPath id="clip0_6194_100"><path fill="currentColor" d="M0 0H16V16H0z" /></clipPath>
  </defs>
</svg>

<svg xmlns="http://www.w3.org/2000/svg" width="16" height="16" fill="none" data-fui-icon="true" viewBox="0 0 16 16"><g clip-path="url(#a)"><path fill="currentColor" d="M10.019.078a4.44 4.44 0 0 1 5.1 3.374l.333 1.441a8.88 8.88 0 0 1-6.655 10.65l-1.441.333-.224.046a4.44 4.44 0 0 1-5.044-3.152l-.057-.22L.699 6.78a4.44 4.44 0 0 1 3.106-5.268l.222-.058L9.795.124zm-5.66 2.82a2.96 2.96 0 0 0-2.218 3.55l1.332 5.768a2.96 2.96 0 0 0 3.55 2.218l1.442-.332q.488-.115.945-.288l-.649-2.813a3.46 3.46 0 0 1 2.593-4.15l2.813-.649a7.5 7.5 0 0 0-.156-.976l-.333-1.441a2.96 2.96 0 0 0-3.55-2.219zm7.328 5.396a1.98 1.98 0 0 0-1.483 2.374l.569 2.466a7.42 7.42 0 0 0 3.38-5.41z"/></g><defs><clipPath id="a"><path fill="currentColor" d="M0 0h16v16H0z"/></clipPath></defs></svg>
